X:27
T:Ballance a Straw. Ru2.027
%%VWML:RutherfordVol2-2249-p14-0
F:http://www.vwml.org/record/RutherfordVol2/2249/p14
B:RUTHERFORD Complete Collection of 200 Country Dances Vol.2; 1759.
Z:vmp.Mike Hicken 2015 www.village-music-project.org.uk
M:C|
Q:1/4=140
K:G
dc|B2 B>B {Bc}d2 cB|A2 A>A A2 Bc|{Bc} d2 cB {AB} c2 BA|G2G>G G2:|
|:gf|e2 d>d d2 (3GBd|c2 B>B B2 gf|e2 d>d d2 cB|AGAB D2 dc|
B2 B>B BgdB|A2 A>A A2 Bc|dgdB AcBA|G2 G>GG2 :|
W:
W: Foot it 4 change sides and clap Hands 3 time .|
W: the same back again :|  cross over two Cu: lead
W: to the top, cast off and clap Hands 3 times .|.
W: (H)ands round 4 at bottom right and left at top
W: and clap Hands 3 times :|
T:Royal Volunteers. Ru2.028, The
L:1/8
B:RUTHERFORD Complete Collection of 200 Country Dances Vol.2; 1759.
Z:vmp.Mike Hicken 2015 www.village-music-project.org.uk
M:6/8
Q:3/8=110
K:D
d2D d2D|BAG FED|FGA Bcd|efd {d/}cBA|
d2D d2D|BAG FED|FGA Bcd|egf {f}e3 :|
|: A3 AB=c |Bd=c BAG|B3 B^cd|ced {d/}cBA|
a2A g2G|f2F e2E|d2D FGA|Bdc d3 :|
W:
W: Cast off one Cu: and turn .|  the same another Cu.
W: :|  lead to the top cast off .|.  lead thro the
W: bottom and cast up :||:  foot corners and turn .||.
W: lead out sides :|
